Papirus/22x22/panel/process-syncing-error.svg

<?xml version="1.0" encoding="UTF-8" standalone="no"?>
<svg id="svg2" xmlns:rdf="http://www.w3.org/1999/02/22-rdf-syntax-ns#" xmlns="http://www.w3.org/2000/svg" viewBox="0 0 22 22" width="22" version="1.1" xmlns:cc="http://creativecommons.org/ns#" height="22" xmlns:dc="http://purl.org/dc/elements/1.1/">
 <metadata id="metadata12">
  <rdf:RDF>
   <cc:Work rdf:about="">
    <dc:format>image/svg+xml</dc:format>
    <dc:type rdf:resource="http://purl.org/dc/dcmitype/StillImage"/>
    <dc:title/>
   </cc:Work>
  </rdf:RDF>
 </metadata>
 <path id="path6" fill="#5294e2" d="m4 4c-0.554 0-1 0.446-1 1v2.2832c0.2965-0.1755 0.636-0.2832 1-0.2832h1 1 1.5859l1.7071-1.707a1.0001 1.0001 0 0 1 0.707 -0.293h1c0-0.554-0.446-1-1-1h-6zm6 2-2 2h-2-1-1c-0.554 0-1 0.446-1 1v1 1 2 1 3c0 1.108 0.892 2 2 2h12c1.108 0 2-0.892 2-2v-3-1-6c0-0.554-0.446-1-1-1h-8zm0.98 2.3203a0.44445 0.44445 0 0 1 0.045 0 0.44445 0.44445 0 0 1 0.401 0.3047l0.797 2.391 2.519 0.025a0.44445 0.44445 0 0 1 0.26 0.801l-2.025 1.498 0.753 2.404a0.44445 0.44445 0 0 1 -0.683 0.494l-2.049-1.465-2.0527 1.461a0.44445 0.44445 0 0 1 -0.6816 -0.498l0.7593-2.402-2.023-1.5a0.44445 0.44445 0 0 1 0.2617 -0.803l2.5193-0.019 0.801-2.387a0.44445 0.44445 0 0 1 0.398 -0.3047z"/>
</svg>

<?xml version="1.0" encoding="UTF-8" standalone="no"?>
<svg xmlns:dc="http://purl.org/dc/elements/1.1/" xmlns:cc="http://creativecommons.org/ns#" xmlns:rdf="http://www.w3.org/1999/02/22-rdf-syntax-ns#" xmlns:svg="http://www.w3.org/2000/svg" xmlns="http://www.w3.org/2000/svg" id="svg2" viewBox="0 0 22 22" version="1.1" width="22" height="22">
    <metadata id="metadata12">
        <rdf:RDF>
            <cc:Work rdf:about="">
                <dc:format>
                    image/svg+xml
                </dc:format>
                <dc:type rdf:resource="http://purl.org/dc/dcmitype/StillImage"/>
                <dc:title/>
            </cc:Work>
        </rdf:RDF>
    </metadata>
    <path d="M 4,4 C 3.446,4 3,4.446 3,5 L 3,7.2832 C 3.2965,7.1077 3.636,7 4,7 L 5,7 6,7 7.5859,7 9.293,5.293 A 1.0001,1.0001 0 0 1 10,5 l 1,0 C 11,4.446 10.554,4 10,4 L 4,4 Z M 10,6 8,8 6,8 5,8 4,8 C 3.446,8 3,8.446 3,9 l 0,1 0,1 0,2 0,1 0,3 c 0,1.108 0.892,2 2,2 l 12,0 c 1.108,0 2,-0.892 2,-2 l 0,-3 0,-1 0,-6 C 19,6.446 18.554,6 18,6 l -8,0 z m 0.98,2.3203 a 0.44445,0.44445 0 0 1 0.045,0 0.44445,0.44445 0 0 1 0.401,0.3047 l 0.797,2.391 2.519,0.025 a 0.44445,0.44445 0 0 1 0.26,0.801 l -2.025,1.498 0.753,2.404 a 0.44445,0.44445 0 0 1 -0.683,0.494 L 10.998,14.773 8.9453,16.234 A 0.44445,0.44445 0 0 1 8.2637,15.736 L 9.023,13.334 7,11.834 A 0.44445,0.44445 0 0 1 7.2617,11.031 L 9.781,11.012 10.582,8.625 A 0.44445,0.44445 0 0 1 10.98,8.3203 Z" id="path6" style="fill:#5294e2;fill-opacity:1"/>
</svg>
